X:1
T:Title
%%score { 1 | ( 2 3 ) }
L:1/8
M:4/4
K:F
V:1 treble nm="Grand Piano"
V:2 bass 
V:3 bass 
V:1
 z4 z2[Q:1/4=100] [A,C]>C | [A,C]2 D>=B, [A,C]2 F>B |[M:3/4] [CA]4 z2 |[M:1/4] [DFB]>[CFA] | %4
[M:4/4] [CFA]>[B,EG] [B,EG]4 [CFA]>[B,EG] |[M:3/4] [B,CG]>[A,CF] [A,CF]4 |[M:1/4] [A,C]>C | %7
[M:4/4] [A,C]2 D>=B, [A,C]2 F>B |[M:3/4] A4 z2 |[M:1/4] B>A |[M:4/4] [FA]>[EG] [EA]4 [EG]2 | %11
 F6 c>c | [Fd]2 [Fd]>[Gd] [DFB][DFB] [Fd]>[Fd] | c4 A2 c>c | [Fd]2 [Fd]>[Fd] =B2 [Ec]>[Fd] | %15
[M:3/4] [Ec]6 |[M:1/4] [A,C]>C |[M:4/4] [A,C]2 D>=B, [A,C]2 F>B |[M:3/4] [CA]4 z2 | %19
[M:1/4] [DFB]>[CFA] |[M:4/4] [CFA]>[B,EG] [CEA]4 [B,EG]2 |[M:3/4] [A,F]6 |] %22
V:2
 z4 z2 z z/ A,/ | z2 B,>_A, z2 =A,>D |[M:3/4] F,,4 z2 |[M:1/4] F,>F, |[M:4/4] C,>C, C,4 C,>C, | %5
[M:3/4] F,>F, F,4 |[M:1/4] z z/ A,/ |[M:4/4] z2 B,>_A, z2 =A,>D |[M:3/4] C4 z2 | %9
[M:1/4] [F,DF]>[F,CF] |[M:4/4] [C,C]>[B,,B,] [C,C]4 [C,B,]2 | [F,A,]6 [F,A,F]>[F,A,F] | %12
 [B,,B,]2 [B,,B,]>[B,,B,] B,,B,, [B,,B,]>[B,,B,] | [F,F]4- [F,CF]2 [F,A,F]>[F,A,F] | %14
 [D,A,]2 [D,A,]>[D,A,] [G,F]2 [G,,G,]>[G,,G,] |[M:3/4] [C,G,]6 |[M:1/4] z z/ A,/ | %17
[M:4/4] z2 B,>_A, z2 =A,>D |[M:3/4] F,,4 z2 |[M:1/4] F,>F, |[M:4/4] C,>C, C,4 C,2 |[M:3/4] F,6 |] %22
V:3
 z4 z2 F,,2 | F,,4 F,,4 |[M:3/4] x6 |[M:1/4] x2 |[M:4/4] x8 |[M:3/4] x6 |[M:1/4] F,,2 | %7
[M:4/4] F,,4 F,,4 |[M:3/4] x6 |[M:1/4] x2 |[M:4/4] x8 | x8 | x8 | A,4 z4 | x8 |[M:3/4] x6 | %16
[M:1/4] F,,2 |[M:4/4] F,,4 F,,4 |[M:3/4] x6 |[M:1/4] x2 |[M:4/4] x8 |[M:3/4] x6 |] %22

